src/24x24/places/folder-gruvbox-material-red-google-drive.svg

<?xml version="1.0" encoding="UTF-8"?>
<svg width="24" height="24" version="1" xmlns="http://www.w3.org/2000/svg">
 <rect x="2" y="9.5" width="20" height="12" rx="1" ry="1" opacity=".2"/>
 <path d="m2 17c0 0.554 0.446 1 1 1h18c0.554 0 1-0.446 1-1v-11c0-0.554-0.446-1-1-1h-9c-1.5 0-2-2-3.5-2h-5.5c-0.554 0-1 0.446-1 1" fill="#c14a4a"/>
 <rect x="2" y="8.5" width="20" height="12" rx="1" ry="1" opacity=".2"/>
 <rect x="4" y="7" width="16" height="8" rx="1" ry="1" fill="#f0ddc3"/>
 <rect x="2" y="9" width="20" height="12" rx="1" ry="1" fill="#ea6962"/>
 <path d="m3 3c-0.554 0-1 0.446-1 1v0.5c0-0.554 0.446-1 1-1h5.5c1.5 0 2 2 3.5 2h9c0.554 0 1 0.446 1 1v-0.5c0-0.554-0.446-1-1-1h-9c-1.5 0-2-2-3.5-2z" fill="#f0ddc3" opacity=".1"/>
 <g fill="#543937">
  <path d="m16 15.48-2.667-4.48h-2.583l2.5 4.48z"/>
  <path d="m11.25 15.97-1.2501 2.03h4.6661l1.334-2.03z"/>
  <path d="m10.5 11.5-2.5 4.5 1.3333 2 2.5167-4z"/>
 </g>
</svg>

<svg xmlns="http://www.w3.org/2000/svg" width="24" height="24" version="1">
 <rect style="opacity:0.2" width="20" height="12" x="2" y="9.5" rx="1" ry="1"/>
 <path style="fill:#c14a4a" d="M 2,17 C 2,17.554 2.446,18 3,18 H 21 C 21.554,18 22,17.554 22,17 V 6 C 22,5.446 21.554,5 21,5 H 12 C 10.5,5 10,3 8.5,3 H 3 C 2.446,3 2,3.446 2,4"/>
 <rect style="opacity:0.2" width="20" height="12" x="2" y="8.5" rx="1" ry="1"/>
 <rect style="fill:#f0ddc3" width="16" height="8" x="4" y="7" rx="1" ry="1"/>
 <rect style="fill:#ea6962" width="20" height="12" x="2" y="9" rx="1" ry="1"/>
 <path style="opacity:0.1;fill:#f0ddc3" d="M 3,3 C 2.446,3 2,3.446 2,4 V 4.5 C 2,3.946 2.446,3.5 3,3.5 H 8.5 C 10,3.5 10.5,5.5 12,5.5 H 21 C 21.554,5.5 22,5.946 22,6.5 V 6 C 22,5.446 21.554,5 21,5 H 12 C 10.5,5 10,3 8.5,3 Z"/>
 <g>
  <path style="fill:#543937" d="M 16,15.48 13.333,11 H 10.75 L 13.25,15.48 Z"/>
  <path style="fill:#543937" d="M 11.25,15.97 9.9999,18 H 14.666 L 16,15.97 Z"/>
  <path style="fill:#543937" d="M 10.5,11.5 8,16 9.3333,18 11.85,14 Z"/>
 </g>
</svg>
